images/leaf-right.svg

<svg width="209" height="280" viewBox="0 0 209 280" fill="none" xmlns="http://www.w3.org/2000/svg">
<path d="M45.6009 279.094C42.7815 279.58 36.229 278.122 34.6735 277.052C24.3488 269.858 4.12727 257.647 0.996826 244.717C0.471848 242.501 9.55208 237.543 10.2909 235.132C15.3074 230.562 17.3296 229.279 19.974 222.59C27.7515 202.816 -10.1833 181.739 20.149 161.012C42.3732 145.826 65.6863 147.946 51.4146 110.633C37.1234 73.3009 46.1647 -5.40761 94.5409 8.90303C122.307 17.1083 108.754 56.6959 127.945 76.9952C146.184 96.2834 142.256 117.924 122.268 138.943C102.28 159.962 118.379 166.495 131.99 185.958C148.342 209.33 109.824 226.11 91.391 232.332C76.5748 237.309 42.1399 260.097 45.6009 279.094Z" fill="url(#paint0_linear_39_3314)"/>
<path d="M18.5157 261.847L18.1074 261.4C86.6078 197.624 109.863 100.094 80.2692 0.542125L80.8525 0.367126C94.8715 47.5572 97.0492 96.1278 87.1717 140.849C76.7693 187.883 53.0284 229.726 18.5157 261.847Z" fill="#FCFDFE"/>
<path d="M139.923 194.844C114.335 194.319 75.3499 205.985 53.0284 220.86L52.6978 220.354C75.0971 205.421 114.237 193.697 139.942 194.241L139.923 194.844Z" fill="#FCFDFE"/>
<path d="M31.8348 249.189L31.3098 248.878C38.4845 236.92 39.3401 221.793 33.8375 203.944C29.8126 190.839 22.5212 176.606 12.1966 161.595L12.7021 161.245C23.0656 176.295 30.3765 190.586 34.4208 203.749C39.9623 221.793 39.0873 237.076 31.8348 249.189Z" fill="#FCFDFE"/>
<path d="M88.3383 134.452L87.7939 134.16C100.16 110.925 124.737 98.2278 143.17 91.6558L143.364 92.2196C125.029 98.7722 100.588 111.411 88.3383 134.452Z" fill="#FCFDFE"/>
<path d="M93.1992 74.4286L92.6159 74.5647C86.0439 45.6712 62.1669 25.7024 48.5174 16.3888L48.8674 15.8833C62.5752 25.2552 86.5689 45.3212 93.1992 74.4286Z" fill="#FCFDFE"/>
<path d="M31.4457 264.861C28.743 263.967 23.6293 259.611 22.7737 257.92C17.0378 246.72 4.92432 226.44 8.24921 213.549C8.81308 211.352 19.1766 211.216 20.9655 209.446C27.5569 207.774 29.9291 207.599 35.4122 202.913C51.57 189.128 27.9847 152.69 64.5001 148.626C91.2548 145.651 110.835 158.504 115.773 118.838C120.712 79.1729 165.666 13.939 201.657 49.3072C222.306 69.6065 191.74 98.1695 199.148 125.099C206.187 150.687 192.557 167.953 165.044 177.111C137.531 186.269 148.672 199.608 151.531 223.193C154.972 251.503 113.11 248.217 93.8991 245.067C78.4219 242.52 37.3177 246.467 31.4457 264.861Z" fill="url(#paint1_linear_39_3314)"/>
<path d="M15.6379 236.921L15.4823 236.337C105.935 212.227 172.277 137.057 192.946 35.2883L193.549 35.405C183.749 83.645 162.847 127.549 133.098 162.392C101.813 199.005 61.2141 224.788 15.6379 236.921Z" fill="#FCFDFE"/>
<path d="M154.292 234.821C131.951 222.318 92.052 214.307 65.3557 216.952L65.2973 216.349C92.0909 213.685 132.145 221.735 154.583 234.296L154.292 234.821Z" fill="#FCFDFE"/>
<path d="M33.3318 232.001L33.0207 231.476C44.9592 224.302 52.8339 211.352 56.3727 192.997C58.9782 179.542 59.2504 163.54 57.1699 145.457L57.7727 145.379C59.8532 163.54 59.5809 179.581 56.9755 193.114C53.3978 211.624 45.4453 224.71 33.3318 232.001Z" fill="#FCFDFE"/>
<path d="M137.123 157.279L136.792 156.773C158.608 142.074 186.277 142.404 205.643 145.282L205.545 145.885C186.296 143.026 158.783 142.676 137.123 157.279Z" fill="#FCFDFE"/>
<path d="M169.633 106.569L169.049 106.414C176.827 77.8119 165.122 48.9768 157.461 34.3356L158.005 34.0439C165.705 48.7629 177.449 77.7536 169.633 106.569Z" fill="#FCFDFE"/>
<defs>
<linearGradient id="paint0_linear_39_3314" x1="98.8325" y1="17.2117" x2="17.6956" y2="535.91" gradientUnits="userSpaceOnUse">
<stop offset="0.00359712" stop-color="#C37A87"/>
<stop offset="1" stop-color="#9571F6"/>
</linearGradient>
<linearGradient id="paint1_linear_39_3314" x1="126.366" y1="37.7906" x2="53.8596" y2="501.313" gradientUnits="userSpaceOnUse">
<stop stop-color="#FF9085"/>
<stop offset="1" stop-color="#FB6FBB"/>
</linearGradient>
</defs>
</svg>

<svg width="209" height="280" fill="none" xmlns="http://www.w3.org/2000/svg"><path d="M45.6 279.094c-2.819.486-9.371-.972-10.927-2.042C24.35 269.858 4.127 257.647.997 244.717c-.525-2.216 8.555-7.174 9.294-9.585 5.016-4.57 7.039-5.853 9.683-12.542 7.777-19.774-30.157-40.851.175-61.578 22.224-15.186 45.537-13.066 31.266-50.379C37.123 73.301 46.165-5.407 94.54 8.903c27.766 8.205 14.213 47.793 33.404 68.092 18.239 19.288 14.311 40.929-5.677 61.948s-3.889 27.552 9.722 47.015c16.352 23.372-22.166 40.152-40.599 46.374-14.816 4.977-49.251 27.765-45.79 46.762z" fill="url(#paint0_linear_39_3314)"/><path d="M18.516 261.847l-.409-.447C86.607 197.624 109.863 100.094 80.27.542l.584-.175c14.019 47.19 16.196 95.76 6.319 140.482-10.403 47.034-34.144 88.877-68.656 120.998z" fill="#FCFDFE"/><path d="M139.923 194.844c-25.588-.525-64.573 11.141-86.895 26.016l-.33-.506c22.4-14.933 61.539-26.657 87.244-26.113l-.019.603zM31.835 249.189l-.525-.311c7.174-11.958 8.03-27.085 2.527-44.934-4.024-13.105-11.316-27.338-21.64-42.349l.505-.35c10.364 15.05 17.674 29.341 21.719 42.504 5.541 18.044 4.666 33.327-2.586 45.44zm56.503-114.737l-.544-.292c12.366-23.235 36.943-35.932 55.376-42.504l.194.564c-18.335 6.552-42.776 19.191-55.026 42.232zM93.2 74.429l-.584.136c-6.572-28.894-30.45-48.863-44.099-58.176l.35-.506C62.575 25.255 86.57 45.321 93.2 74.43z" fill="#FCFDFE"/><path d="M31.446 264.861c-2.703-.894-7.817-5.25-8.672-6.941-5.736-11.2-17.85-31.48-14.525-44.371.564-2.197 10.928-2.333 12.716-4.103 6.592-1.672 8.964-1.847 14.447-6.533 16.158-13.785-7.427-50.223 29.088-54.287 26.755-2.975 46.335 9.878 51.273-29.788 4.939-39.665 49.893-104.899 85.884-69.53 20.649 20.298-9.917 48.861-2.509 75.791 7.039 25.588-6.591 42.854-34.104 52.012-27.513 9.158-16.372 22.497-13.513 46.082 3.441 28.31-38.421 25.024-57.632 21.874-15.477-2.547-56.581 1.4-62.453 19.794z" fill="url(#paint1_linear_39_3314)"/><path d="M15.638 236.921l-.156-.584c90.453-24.11 156.795-99.28 177.464-201.049l.603.117c-9.8 48.24-30.702 92.144-60.451 126.987-31.285 36.613-71.884 62.396-117.46 74.529z" fill="#FCFDFE"/><path d="M154.292 234.821c-22.341-12.503-62.24-20.514-88.936-17.869l-.059-.603c26.794-2.664 66.848 5.386 89.286 17.947l-.291.525zm-120.96-2.82l-.311-.525c11.938-7.174 19.813-20.124 23.352-38.479 2.605-13.455 2.877-29.457.797-47.54l.603-.078c2.08 18.161 1.808 34.202-.798 47.735-3.577 18.51-11.53 31.596-23.643 38.887zm103.791-74.722l-.331-.506c21.816-14.699 49.485-14.369 68.851-11.491l-.098.603c-19.249-2.859-46.762-3.209-68.422 11.394zm32.51-50.71l-.584-.155c7.778-28.602-3.927-57.437-11.588-72.078l.544-.292c7.7 14.719 19.444 43.71 11.628 72.525z" fill="#FCFDFE"/><defs><linearGradient id="paint0_linear_39_3314" x1="98.832" y1="17.212" x2="17.696" y2="535.91" gradientUnits="userSpaceOnUse"><stop offset=".004" stop-color="#C37A87"/><stop offset="1" stop-color="#9571F6"/></linearGradient><linearGradient id="paint1_linear_39_3314" x1="126.366" y1="37.791" x2="53.86" y2="501.313" gradientUnits="userSpaceOnUse"><stop stop-color="#FF9085"/><stop offset="1" stop-color="#FB6FBB"/></linearGradient></defs></svg>
